src/platform/plugins/shared/home/public/assets/sample_data_resources/flights/icon.svg

<svg width="34" height="32" viewBox="0 0 34 32" fill="none" xmlns="http://www.w3.org/2000/svg">
<path fill-rule="evenodd" clip-rule="evenodd" d="M2.00024 22C2.47508 22.2862 3.49851 22.5776 4.42785 22.8421L4.64995 22.9054C7.06615 23.5957 10.4115 24 14 24C14.7424 24 15.4744 23.9827 16.1899 23.9491C16.3251 24.6338 16.5303 25.2934 16.7976 25.9201C15.8936 25.9725 14.9581 26 14 26C6.26801 26 0 24.2091 0 22V4C0 1.79086 6.26801 0 14 0C21.732 0 28 1.79086 28 4V12.2C27.3538 12.0689 26.6849 12 26 12C24.0582 12 22.2456 12.5535 20.7115 13.5113C18.7188 13.8229 16.4318 14 14 14C8.90735 14 4.44979 13.2231 2 12.0615V16C2.47483 16.2862 3.49851 16.5776 4.42785 16.8421L4.64995 16.9054C7.06615 17.5957 10.4115 18 14 18C14.9798 18 15.9415 17.9699 16.871 17.912C16.5813 18.558 16.3581 19.2404 16.2102 19.9504C15.4903 19.9831 14.7521 20 14 20C8.90735 20 4.44979 19.2231 2 18.0615L2.00024 22ZM2 6.06148V10C2.47483 10.2862 3.49853 10.5776 4.42787 10.8421L4.64995 10.9054C7.06615 11.5957 10.4115 12 14 12C17.5885 12 20.9338 11.5957 23.3501 10.9054L23.5863 10.8381C24.5124 10.5746 25.5311 10.2848 26.0035 10H26V6.06148C23.5502 7.2231 19.0927 8 14 8C8.90735 8 4.44979 7.2231 2 6.06148ZM23.3501 3.09462C20.9338 2.40428 17.5885 2 14 2C10.4115 2 7.06615 2.40428 4.64995 3.09462C3.6667 3.37555 2.89023 3.69073 2.37721 4C2.89023 4.30927 3.6667 4.62445 4.64995 4.90538C7.06615 5.59572 10.4115 6 14 6C17.5885 6 20.9338 5.59572 23.3501 4.90538C24.3333 4.62445 25.1098 4.30927 25.6228 4C25.1098 3.69073 24.3333 3.37555 23.3501 3.09462Z" fill="#343741"/>
<path d="M30.2054 20.997C30.2054 20.997 31.4286 28.6726 31.4441 28.8802C31.4626 29.0909 31.4873 29.407 31.1771 29.7356C30.7986 30.1137 30.6435 30.0518 30.4885 29.7667C30.4885 29.7667 27.3666 24.1989 27.2457 23.9975C27.1247 23.7961 26.9821 23.7713 26.7556 23.9728C26.5291 24.1743 25.285 25.3863 25.1454 25.5258C25.0195 25.6515 25.0172 25.6841 25.0089 25.8028C25.008 25.8158 25.007 25.8298 25.0058 25.845L24.7322 28.101C24.726 28.2126 24.6763 28.3242 24.5895 28.411L24.2048 28.7953C24.0093 28.9906 23.8914 28.9349 23.7985 28.6932C23.7055 28.4515 23.3274 27.1438 23.3274 27.1438C23.315 27.1129 23.2437 26.9424 23.1879 26.8867L23.1819 26.8807C23.054 26.7528 22.9365 26.6353 22.7227 26.8062C22.3287 27.1193 21.9409 27.2837 21.8293 27.1721C21.7177 27.0606 21.8821 26.6732 22.1955 26.2796C22.3635 26.0629 22.2489 25.9484 22.121 25.8207L22.115 25.8147C22.0592 25.759 21.8886 25.6877 21.8576 25.6754C21.8576 25.6754 20.5488 25.2976 20.3069 25.2047C20.065 25.1118 20.0092 24.9941 20.2046 24.7988L20.5893 24.4144C20.6762 24.3277 20.7848 24.2811 20.8995 24.2718L23.1576 23.9985C23.1775 23.9969 23.1952 23.9958 23.2112 23.9949C23.3209 23.9882 23.3554 23.986 23.4771 23.859C23.5142 23.8204 23.6266 23.7051 23.7756 23.5523C24.1888 23.1287 24.8833 22.4166 25.0315 22.2503C25.2332 22.024 25.2084 21.8815 25.0068 21.7606C24.8052 21.6398 19.2323 18.5207 19.2323 18.5207C18.9501 18.3689 18.885 18.2109 19.2635 17.8328C19.5862 17.5104 19.9026 17.5351 20.1135 17.5536C20.3244 17.5722 28.0038 18.7911 28.0038 18.7911L28.0348 18.7911C28.3492 18.7882 28.4929 18.6562 28.7234 18.4445C28.7453 18.4243 28.768 18.4034 28.7918 18.3819C28.7918 18.3819 30.9604 16.271 31.7143 15.5983C32.4682 14.9257 33.3025 14.8294 33.7367 15.2631C34.1708 15.6968 34.0744 16.5367 33.4011 17.2899C32.7279 18.0431 30.6151 20.2097 30.6151 20.2097C30.5935 20.2335 30.5726 20.2562 30.5524 20.2781C30.3405 20.5083 30.2084 20.6519 30.2055 20.966L30.2054 20.997Z" fill="#343741"/>
</svg>

<svg xmlns="http://www.w3.org/2000/svg" width="34" height="32" fill="none"><path fill="#343741" fill-rule="evenodd" d="M2 22c.475.286 1.499.578 2.428.842l.222.063C7.066 23.595 10.412 24 14 24q1.114 0 2.19-.05a10 10 0 0 0 .608 1.97c-.904.052-1.84.08-2.798.08-7.732 0-14-1.79-14-4V4c0-2.21 6.268-4 14-4s14 1.79 14 4v8.2q-.97-.198-2-.2a9.95 9.95 0 0 0-5.288 1.511c-1.993.312-4.28.489-6.712.489-5.093 0-9.55-.777-12-1.938V16c.475.286 1.499.578 2.428.842l.222.063C7.066 17.595 10.412 18 14 18c.98 0 1.941-.03 2.871-.088a10 10 0 0 0-.66 2.038Q15.128 20 14 20c-5.093 0-9.55-.777-12-1.939zM2 6.061V10c.475.286 1.499.578 2.428.842l.222.063C7.066 11.595 10.412 12 14 12s6.934-.404 9.35-1.095l.236-.067c.926-.263 1.945-.553 2.418-.838H26V6.061C23.55 7.223 19.093 8 14 8S4.45 7.223 2 6.061m21.35-2.966C20.934 2.405 17.588 2 14 2s-6.934.404-9.35 1.095c-.983.28-1.76.596-2.273.905.513.31 1.29.624 2.273.905C7.066 5.595 10.412 6 14 6s6.934-.404 9.35-1.095c.983-.28 1.76-.596 2.273-.905-.513-.31-1.29-.624-2.273-.905" clip-rule="evenodd"/><path fill="#343741" d="M30.205 20.997s1.224 7.676 1.24 7.883c.018.21.042.527-.268.856-.378.378-.534.316-.689.03 0 0-3.121-5.567-3.242-5.768-.121-.202-.264-.227-.49-.025a106 106 0 0 0-1.61 1.553c-.127.125-.129.158-.137.277l-.003.042-.274 2.256a.48.48 0 0 1-.142.31l-.385.384c-.196.196-.314.14-.406-.102s-.472-1.55-.472-1.55c-.012-.03-.083-.2-.14-.256l-.005-.006c-.128-.128-.245-.246-.46-.075-.393.313-.781.478-.893.366s.053-.499.366-.892c.168-.217.054-.332-.074-.46l-.006-.005c-.056-.056-.226-.127-.257-.14 0 0-1.31-.377-1.551-.47-.242-.093-.298-.21-.102-.406l.384-.385a.5.5 0 0 1 .31-.142l2.259-.273.053-.004c.11-.007.144-.009.266-.136l.299-.307a88 88 0 0 0 1.256-1.302c.201-.226.176-.369-.025-.49-.202-.12-5.775-3.24-5.775-3.24-.282-.151-.347-.31.032-.687.322-.323.639-.298.85-.28.21.02 7.89 1.238 7.89 1.238h.03c.315-.003.459-.135.69-.346l.068-.063s2.168-2.111 2.922-2.784 1.589-.769 2.023-.335.337 1.274-.336 2.027-2.786 2.92-2.786 2.92l-.063.068c-.212.23-.344.374-.346.688z"/></svg>
